assets/offering/skadegorelse2-grey.svg

<svg width="48" height="48" viewBox="0 0 48 48" fill="none" xmlns="http://www.w3.org/2000/svg">
<g opacity="0.3">
<mask id="mask0" mask-type="alpha" maskUnits="userSpaceOnUse" x="0" y="0" width="48" height="48">
<path fill-rule="evenodd" clip-rule="evenodd" d="M0 0H47.9999V47.9998H0V0Z" fill="white"/>
</mask>
<g mask="url(#mask0)">
<path fill-rule="evenodd" clip-rule="evenodd" d="M48 24C48 37.255 37.255 48 24 48C10.745 48 0 37.255 0 24C0 10.745 10.745 0 24 0C37.255 0 48 10.745 48 24Z" fill="#FF8A80"/>
</g>
<path fill-rule="evenodd" clip-rule="evenodd" d="M16.1829 33.346L17.8499 35.013L22.8889 29.974L35.5659 20.422C36.3579 19.825 36.8519 18.916 36.9209 17.928C36.9909 16.939 36.6279 15.97 35.9269 15.269C35.2259 14.568 34.2529 14.208 33.2689 14.275C32.2799 14.344 31.3709 14.838 30.7739 15.63L21.2209 28.307L16.1829 33.346ZM17.8498 36.4281L14.7688 33.3461L20.4898 27.6251L29.9748 15.0281C30.7458 14.0051 31.9208 13.3671 33.1988 13.2771C34.4768 13.1941 35.7288 13.6561 36.6338 14.5621C37.5398 15.4671 38.0078 16.7201 37.9178 17.9971C37.8288 19.2751 37.1908 20.4501 36.1668 21.2211L23.5428 30.7271L17.8498 36.4281Z" fill="white"/>
<path fill-rule="evenodd" clip-rule="evenodd" d="M18.4356 36.8058C18.3076 36.8058 18.1796 36.7568 18.0816 36.6598L14.5366 33.1138C14.3406 32.9178 14.3406 32.6018 14.5366 32.4068C14.7316 32.2108 15.0476 32.2108 15.2436 32.4068L18.7896 35.9518C18.9846 36.1478 18.9846 36.4638 18.7896 36.6598C18.6916 36.7568 18.5636 36.8058 18.4356 36.8058Z" fill="white"/>
<path fill-rule="evenodd" clip-rule="evenodd" d="M11.5253 23.6387H10.5703C10.2943 23.6387 10.0703 23.4147 10.0703 23.1387C10.0703 22.8627 10.2943 22.6387 10.5703 22.6387H11.5253C11.8013 22.6387 12.0253 22.8627 12.0253 23.1387C12.0253 23.4147 11.8013 23.6387 11.5253 23.6387Z" fill="white"/>
<path fill-rule="evenodd" clip-rule="evenodd" d="M18.2031 36.0746L17.4961 35.3676L22.1821 30.6816L22.8891 31.3886L18.2031 36.0746Z" fill="white"/>
<path fill-rule="evenodd" clip-rule="evenodd" d="M15.8603 33.7319L15.1533 33.0249L19.8393 28.3389L20.5463 29.0459L15.8603 33.7319Z" fill="white"/>
<path fill-rule="evenodd" clip-rule="evenodd" d="M22.5351 31.7421L19.4531 28.6601L20.1601 27.9531L23.2421 31.0351L22.5351 31.7421Z" fill="white"/>
<path fill-rule="evenodd" clip-rule="evenodd" d="M18.0253 23.6387H14.5703C14.2943 23.6387 14.0703 23.4147 14.0703 23.1387C14.0703 22.8627 14.2943 22.6387 14.5703 22.6387H18.0253C18.3013 22.6387 18.5253 22.8627 18.5253 23.1387C18.5253 23.4147 18.3013 23.6387 18.0253 23.6387Z" fill="white"/>
<path fill-rule="evenodd" clip-rule="evenodd" d="M17.8251 14.1934H16.8701C16.5941 14.1934 16.3701 13.9694 16.3701 13.6934C16.3701 13.4174 16.5941 13.1934 16.8701 13.1934H17.8251C18.1011 13.1934 18.3251 13.4174 18.3251 13.6934C18.3251 13.9694 18.1011 14.1934 17.8251 14.1934Z" fill="white"/>
<path fill-rule="evenodd" clip-rule="evenodd" d="M24.3251 14.1934H20.8701C20.5941 14.1934 20.3701 13.9694 20.3701 13.6934C20.3701 13.4174 20.5941 13.1934 20.8701 13.1934H24.3251C24.6011 13.1934 24.8251 13.4174 24.8251 13.6934C24.8251 13.9694 24.6011 14.1934 24.3251 14.1934Z" fill="white"/>
<path fill-rule="evenodd" clip-rule="evenodd" d="M16.9755 18.916H13.0205C12.7445 18.916 12.5205 18.692 12.5205 18.416C12.5205 18.14 12.7445 17.916 13.0205 17.916H16.9755C17.2515 17.916 17.4755 18.14 17.4755 18.416C17.4755 18.692 17.2515 18.916 16.9755 18.916Z" fill="white"/>
<path fill-rule="evenodd" clip-rule="evenodd" d="M21.4755 18.916H20.0205C19.7445 18.916 19.5205 18.692 19.5205 18.416C19.5205 18.14 19.7445 17.916 20.0205 17.916H21.4755C21.7515 17.916 21.9755 18.14 21.9755 18.416C21.9755 18.692 21.7515 18.916 21.4755 18.916Z" fill="white"/>
</g>
</svg>

<svg width="48" height="48" viewBox="0 0 48 48" fill="none" xmlns="http://www.w3.org/2000/svg"><g opacity=".3"><mask id="a" maskUnits="userSpaceOnUse" x="0" y="0" width="48" height="48"><path fill-rule="evenodd" clip-rule="evenodd" d="M0 0h48v48H0V0z" fill="#fff"/></mask><g mask="url(#a)"><path fill-rule="evenodd" clip-rule="evenodd" d="M48 24c0 13.255-10.745 24-24 24S0 37.255 0 24 10.745 0 24 0s24 10.745 24 24z" fill="#FF8A80"/></g><path fill-rule="evenodd" clip-rule="evenodd" d="M16.183 33.346l1.667 1.667 5.039-5.039 12.677-9.552a3.421 3.421 0 10-4.792-4.792L21.22 28.307l-5.038 5.039zm1.667 3.082l-3.081-3.082 5.72-5.72 9.486-12.598a4.424 4.424 0 013.224-1.75 4.44 4.44 0 013.435 1.284 4.416 4.416 0 011.284 3.435 4.418 4.418 0 01-1.751 3.224l-12.624 9.506-5.693 5.701z" fill="#fff"/><path fill-rule="evenodd" clip-rule="evenodd" d="M18.436 36.806a.502.502 0 01-.354-.146l-3.545-3.546a.499.499 0 010-.707.499.499 0 01.707 0l3.546 3.545a.502.502 0 01-.354.854zM11.525 23.639h-.955a.5.5 0 010-1h.955a.5.5 0 010 1z" fill="#fff"/><path fill-rule="evenodd" clip-rule="evenodd" d="M18.203 36.075l-.707-.707 4.686-4.686.707.707-4.686 4.686zM15.86 33.732l-.707-.707 4.686-4.686.707.707-4.686 4.686z" fill="#fff"/><path fill-rule="evenodd" clip-rule="evenodd" d="M22.535 31.742l-3.082-3.082.707-.707 3.082 3.082-.707.707zM18.025 23.639H14.57a.5.5 0 010-1h3.455a.5.5 0 010 1zM17.825 14.193h-.955a.5.5 0 010-1h.955a.5.5 0 010 1zM24.325 14.193H20.87a.5.5 0 010-1h3.455a.5.5 0 010 1zM16.976 18.916H13.02a.5.5 0 010-1h3.954a.5.5 0 010 1zM21.476 18.916H20.02a.5.5 0 010-1h1.456a.5.5 0 010 1z" fill="#fff"/></g></svg>
